!!!OTL: Pan ge
!!!ARE: Asia, China,ÿShaanxi, Shiquan
!! I, 85
!!!SCT: C1411
!!!YEM: Copyright 1995, estate of Helmut Schaffrath.
**kern
*ICvox
*Ivox
!! Mixed meters:  2/4; 3/4
*M2/4
*k[f#]
*G:
{8e
16e
16g
4b
=1
16a
16b
16a
16g
4e
=2
*M3/4
8b
16a
16g
4a
4b}
=3
*M2/4
{8b
8g
8a
8b
=4
8g
8e
4g
=5
8g
16g
16b
8a
8g
=6
2e}
=7
{8dd
8a
4b
=8
16a
16b
16a
16g
4e
=9
*M3/4
8b
16a
16g
4a
4b}
=10
*M2/4
{8g
8b
8a
8g
=11
8g
8e
4g
=12
8g
16g
16b
8a
8g
=13
2e}
==
!!!AGN: Xiaodiao. Chang huahui
!!!ONB: ESAC (Essen Associative Code) Database: HUANG
!!!AMT: irregular
!!!AIN: vox
!!!EED: Helmut Schaffrath
!!!EEV: 1.0
*-
!!!OTL: Guazi hung
!!!ARE: Asia, China,ÿHunan, Chaling
!! I, 559
!!!SCT: C1474
!!!YEM: Copyright 1995, estate of Helmut Schaffrath.
**kern
*ICvox
*Ivox
!! Mixed meters:  2/4; 3/4
*M3/4
*k[f#c#g#]
*A:
{8aa
16ee
16aa
8ff#
8ee
=1
8bb
16eee
16aa
16bb
16aa
8bb}
=2
{8eee
16eee
16fff#
8eee
16aa
16eee
=3
8bb
16eee
16aa
16bb
16aa
8bb}
=4
{8aa
16ee
16aa
16bb
16eee
16bb
16aa
=5
8bb
4eee
16eee
16bb
=6
4aa
8ff#
8ee}
=7
{8eee
16eee
16fff#
8eee
16aa
16eee
=8
8bb
16eee
16aa
16bb
16aa
8bb}
=9
{8eee
16eee
16fff#
8eee
16aa
16eee
=10
8bb
16eee
16aa
16bb
16aa
8bb}
=11
{8aa
16ee
16aa
16bb
16eee
16bb
16aa
=12
8bb
4eee
16eee
16bb
=13
4aa
8ff#
8ee}
=14
{16aa
16ee
16aa
16eee
8bb
16eee
16aa
16bb
16aa
8bb}
=15
{16aa
16ee
16aa
16eee
8bb
16eee
16aa
16bb
16aa
8bb}
=16
*M2/4
{16aa
16bb
4eee
8aaa}
=17
{8aa
16ee
16aa
16bb
16eee
16bb
16aa
=18
8bb
4eee
16eee
16bb
=19
8.aa
16ff#
8ee
16aa
16ff#
=20
2ee}
==
!!!AGN: Xiaodiao
!!!ONB: ESAC (Essen Associative Code) Database: HUANG
!!!AMT: irregular
!!!AIN: vox
!!!EED: Helmut Schaffrath
!!!EEV: 1.0
*-
